svgs/sharp-regular/chart-line-down.svg

<svg xmlns="http://www.w3.org/2000/svg" viewBox="0 0 512 512"><!--! Font Awesome Pro 6.6.0 by @fontawesome - https://fontawesome.com License - https://fontawesome.com/license (Commercial License) Copyright 2024 Fonticons, Inc. --><path d="M48 56l0-24L0 32 0 56 0 456l0 24 24 0 464 0 24 0 0-48-24 0L48 432 48 56zM344 320l112 0 24 0 0-24 0-112 0-24-48 0 0 24 0 54.1L321 127l-17-17-17 17-79 79-63-63-17-17L94.1 160l17 17 80 80 17 17 17-17 79-79L398.1 272 344 272l-24 0 0 48 24 0z"/></svg>

<svg xmlns="http://www.w3.org/2000/svg" viewBox="0 0 512 512"><!--! Font Awesome Pro 6.5.2 by @fontawesome - https://fontawesome.com License - https://fontawesome.com/license (Commercial License) Copyright 2024 Fonticons, Inc. --><path d="M48 56V32H0V56 456v24H24 488h24V432H488 48V56zM344 320H456h24V296 184 160H432v24 54.1L321 127l-17-17-17 17-79 79-63-63-17-17L94.1 160l17 17 80 80 17 17 17-17 79-79L398.1 272H344 320v48h24z"/></svg>
